!!!COM: Gaspar van Weerbeke
!!!CDT: ~1450-~1517
!!!OPR: Missa brevis
!!!OTL: Credo
!!!ONM: 3
!!!AGN: Mass
!!!SCT: Gas0201c
!!!SCA: Gas0201c
!!!voices: 4
**kern	**text	**kern	**text	**kern	**text	**kern	**text
*part4	*part4	*part3	*part3	*part2	*part2	*part1	*part1
*staff4	*staff4	*staff3	*staff3	*staff2	*staff2	*staff1	*staff1
*I"Bassus	*	*I"Tenor	*	*I"Altus	*	*I"Superius	*
*I'B	*	*I'T	*	*I'A	*	*I'S	*
*clefF4	*	*clefGv2	*	*clefGv2	*	*clefG2	*
*k[b-]	*	*k[b-]	*	*k[b-]	*	*k[b-]	*
*M2/2	*	*M2/2	*	*M2/2	*	*M2/2	*
*met(C|)	*	*met(C|)	*	*met(C|)	*	*met(C|)	*
=1	=1	=1	=1	=1	=1	=1	=1
1r	.	2g	Pa-	1r	.	2g	Pa-
.	.	4g	-trem	.	.	4b-y	-trem
.	.	4f	o-	.	.	4a	o-
=2	=2	=2	=2	=2	=2	=2	=2
1r	.	4g	-mni-	1r	.	4b-y	-mni-
.	.	4e-j	-po-	.	.	4cc	-po-
.	.	2d	-ten-	.	.	2dd	-ten-
=3	=3	=3	=3	=3	=3	=3	=3
1r	.	4d	-tem,	1r	.	4dd	-tem,
.	.	4g	fa-	.	.	4dd	fa-
.	.	4.f	-cto-	.	.	4.dd	-cto-
.	.	8e-j	-rem	.	.	8cc	-rem
=4	=4	=4	=4	=4	=4	=4	=4
1r	.	4d	ce-	1r	.	4b-y	ce-
.	.	4c	-li	.	.	4.a	-li
.	.	2B-y	et	.	.	.	.
.	.	.	.	.	.	8g	.
.	.	.	.	.	.	[4g	et
=5	=5	=5	=5	=5	=5	=5	=5
2r	.	2A	ter-	2r	.	4g]	.
.	.	.	.	.	.	4f#i	ter-
4r	.	2G	-re.	4r	.	2g	-re.
4G	Vi-	.	.	4G	Vi-	.	.
!!LO:LB:g=original	*	*	*	*	*	*	*	*
=6	=6	=6	=6	=6	=6	=6	=6
4G	-si-	1r	.	4B-y	-si-	1r	.
4G	-bi-	.	.	4B-y	-bi-	.	.
4G	-li-	.	.	4B-y	-li-	.	.
4F	-um	.	.	4A	-um	.	.
=7	=7	=7	=7	=7	=7	=7	=7
4G	o-	1r	.	4B-y	o-	1r	.
4E-j	-mni-	.	.	4c	-mni-	.	.
2D	-um	.	.	4.d	-um	.	.
.	.	.	.	8e	.	.	.
=8	=8	=8	=8	=8	=8	=8	=8
4r	.	1r	.	8fL	.	1r	.
.	.	.	.	8gJ	.	.	.
2d	et	.	.	4a	.	.	.
.	.	.	.	4b-y	et	.	.
4c	in-	.	.	4a	in-	.	.
=9	=9	=9	=9	=9	=9	=9	=9
4d	-vi-	1r	.	4a	-vi-	1r	.
4B-y	-si-	.	.	4g	-si-	.	.
4A	-bi-	.	.	4g	-bi-	.	.
4A	-li-	.	.	4f#i	-li-	.	.
=10	=10	=10	=10	=10	=10	=10	=10
2G	-um.	4d	Et	2g	-um.	2r	.
.	.	4d	in	.	.	.	.
2r	.	4d	u-	2r	.	4dd	Et
.	.	4e	-num	.	.	4cc	in
=11	=11	=11	=11	=11	=11	=11	=11
1r	.	4f	Do-	1r	.	4dd	u-
.	.	4e	-mi-	.	.	4ee	-num
.	.	4d	-num	.	.	4ff	Do-
.	.	4g	Je-	.	.	4ee	-mi-
!!LO:LB:g=original	*	*	*	*	*	*	*	*
=12	=12	=12	=12	=12	=12	=12	=12
1r	.	4f	-sum	1r	.	4dd	-num
.	.	4e	Chri-	.	.	4gg	Je-
.	.	4d	-stum,	.	.	4ff	-sum
.	.	4c	Fi-	.	.	4ee	Chri-
=13	=13	=13	=13	=13	=13	=13	=13
4D	Fi-	4d	-li-	4.a	Fi-	4dd	-stum,
4A	-li-	4c	-um	.	.	2ee	Fi-
.	.	.	.	8a	-li-	.	.
*	*	*lig	*	*	*	*	*
4F	-um	2d	De-	4a	-um	.	.
4D	De-	.	.	4a	De-	4dd	-li-
=14	=14	=14	=14	=14	=14	=14	=14
2A	-i	2e	.	2a	-i	4dd	-um
.	.	.	.	.	.	4cc#i	De-
*	*	*Xlig	*	*	*	*	*
4B-y	u-	2d	-i.	4f	u-	2dd	-i.
4G	-ni-	.	.	4g	-ni-	.	.
=15	=15	=15	=15	=15	=15	=15	=15
4A	-ge-	1r	.	4e	-ge-	1r	.
4A	-ni-	.	.	4f#i	-ni-	.	.
4.G	-tum.	.	.	2g	-tum.	.	.
8F	.	.	.	.	.	.	.
=16	=16	=16	=16	=16	=16	=16	=16
1D	.	4d	Et	1r	.	2r	.
.	.	4d	ex	.	.	.	.
.	.	4d	Pa-	.	.	4dd	Et
.	.	4d	-tre	.	.	4dd	ex
=17	=17	=17	=17	=17	=17	=17	=17
1r	.	2f	na-	2r	.	4dd	Pa-
.	.	.	.	.	.	4dd	-tre
.	.	4d	-tum	4d	Et	2ff	na-
.	.	4d	an-	4d	ex	.	.
!!LO:PB:g=original	*	*	*	*	*	*	*	*
=18	=18	=18	=18	=18	=18	=18	=18
2r	.	4B-y	-te	4d	Pa-	4dd	-tum
.	.	4B-y	o-	4d	-tre	4dd	an-
4BB-y	Et	4d	-mni-	2f	na-	4dd	-te
4BB-y	ex	4d	-a	.	.	4dd	o-
=19	=19	=19	=19	=19	=19	=19	=19
4BB-y	Pa-	2d	se-	4d	-tum	4cc	-mni-
4BB-y	-tre	.	.	4f	an-	4b-y	-a
2F	na-	2c	-cu-	4f	-te	4b-y	se-
.	.	.	.	4f	o-	4a	-cu-
=20	=20	=20	=20	=20	=20	=20	=20
4G	-tum	2B-y	-la.	4.d	-mni-	2b-y	-la.
4G	an-	.	.	.	.	.	.
.	.	.	.	8c	.	.	.
4F	-te	2r	.	4A	.	2r	.
4E-j	o-	.	.	[4c	-a	.	.
=21	=21	=21	=21	=21	=21	=21	=21
4F	-mni-	2r	.	4c]	.	1r	.
*	*	*	*	*col	*	*	*
4D	-a	.	.	4.d	se-	.	.
4F	se-	2f	De-	.	.	.	.
.	.	.	.	8c	.	.	.
*	*	*	*	*Xcol	*	*	*
4D	.	.	.	[4B-y	.	.	.
=22	=22	=22	=22	=22	=22	=22	=22
2C	-cu-	4e-i	-um	4B-]	.	2r	.
.	.	4e-i	de	4A	-cu-	.	.
2BB-y	-la.	2d	De-	2B-y	-la.	2ff	De-
=23	=23	=23	=23	=23	=23	=23	=23
1r	.	4c	-o,	4r	.	4ee-i	-um
.	.	4c	lu-	4c	De-	4ee-i	de
.	.	4B-y	-men	4d	-um	4dd	De-
.	.	4A	de	4e	de	4cc	-o,
!!LO:LB:g=original	*	*	*	*	*	*	*	*
=24	=24	=24	=24	=24	=24	=24	=24
1r	.	4B-y	lu-	4d	De-	4dd	lu-
.	.	4G	-mi-	4e	.	4b-y	.
.	.	2F	-ne,	2f	-o,	4a	-men
.	.	.	.	.	.	[4cc	de
=25	=25	=25	=25	=25	=25	=25	=25
1r	.	1r	.	4c	lu-	8ccL]	.
.	.	.	.	.	.	8b-y	.
.	.	.	.	4c	-men	8a	.
.	.	.	.	.	.	8gJ	.
.	.	.	.	4d	de	4f	.
.	.	.	.	[4c	lu-	[4g	lu-
=26	=26	=26	=26	=26	=26	=26	=26
1r	.	4r	.	4c]	.	4g]	.
.	.	4F	De-	8B-yL	-mi-	2f	.
.	.	.	.	8AJ	.	.	.
.	.	4B-y	-um	4G	-ne,	.	.
.	.	4B-y	ve-	4G	De-	4e	-mi-
=27	=27	=27	=27	=27	=27	=27	=27
1r	.	4c	-rum	4F	-um	2f	-ne,
.	.	4c	de	4F	ve-	.	.
.	.	2d	De-	4B-y	-rum	4r	.
.	.	.	.	4B-y	de	4f	De-
=28	=28	=28	=28	=28	=28	=28	=28
1r	.	4B-y	.	4G	De-	4b-y	-um
.	.	4G	.	2g	-o	4b-y	ve-
.	.	2A	-o	.	.	4cc	-rum
.	.	.	.	4f#i	ve-	4cc	de
=29	=29	=29	=29	=29	=29	=29	=29
2G	De-	8GL	ve-	2g	-ro.	4.dd	De-
.	.	8A	.	.	.	.	.
.	.	8B-y	.	.	.	.	.
.	.	8cJ	.	.	.	8cc	.
4F	-um	4d	.	2r	.	4a	.
4E-i	de	4e-i	.	.	.	4g	-o
!!LO:LB:g=original	*	*	*	*	*	*	*	*
=30	=30	=30	=30	=30	=30	=30	=30
*	*	*	*	*	*	*lig	*
2G	De-	4d	.	1r	.	2b-y	ve-
.	.	2g	.	.	.	.	.
2D	-o,	.	.	.	.	2a	.
.	.	4f#i	.	.	.	.	.
*	*	*	*	*	*	*Xlig	*
=31	=31	=31	=31	=31	=31	=31	=31
1r	.	2g	-ro.	4g	Ge-	2g	-ro.
.	.	.	.	4g	-ni-	.	.
.	.	2r	.	4f	-tum,	2r	.
.	.	.	.	4f	non	.	.
=32	=32	=32	=32	=32	=32	=32	=32
4G	Ge-	1r	.	2g	fa-	1r	.
4G	-ni-	.	.	.	.	.	.
4F	-tum,	.	.	4d	-ctum,	.	.
4F	non	.	.	4d	con-	.	.
=33	=33	=33	=33	=33	=33	=33	=33
2G	fa-	1r	.	4d	-sub-	1r	.
.	.	.	.	4d	-stan-	.	.
4D	-ctum,	.	.	8dL	-ti-	.	.
.	.	.	.	8e	.	.	.
4D	con-	.	.	8f	.	.	.
.	.	.	.	8gJ	.	.	.
=34	=34	=34	=34	=34	=34	=34	=34
4D	-sub-	1r	.	4.a	-a-	1r	.
4D	-stan-	.	.	.	.	.	.
.	.	.	.	8g	.	.	.
4D	-ti-	.	.	4f	-lem	.	.
*	*	*	*	*lig	*	*	*
[4G	-a-	.	.	[4e	Pa-	.	.
!!LO:LB:g=original	*	*	*	*	*	*	*	*
=35	=35	=35	=35	=35	=35	=35	=35
4G]	.	1r	.	4e]	.	1r	.
4F	-lem	.	.	2d	.	.	.
2E	Pa-	.	.	.	.	.	.
*	*	*	*	*Xlig	*	*	*
.	.	.	.	4c#i	.	.	.
=36	=36	=36	=36	=36	=36	=36	=36
2D	-tri,	4r	.	2d	-tri,	4r	.
.	.	4f	Per	.	.	4a	Per
2r	.	4f	quem	2r	.	4a	quem
.	.	4f	o-	.	.	4a	o-
=37	=37	=37	=37	=37	=37	=37	=37
1r	.	4f	-mni-	1r	.	4a	-mni-
.	.	2g	-a	.	.	4.b-y	-a
.	.	.	.	.	.	8a	.
.	.	4f	fa-	.	.	[4dd	fa-
=38	=38	=38	=38	=38	=38	=38	=38
1r	.	2e	-cta	2A	Qui	4dd]	.
.	.	.	.	.	.	4cc#i	-cta
.	.	2d	sunt.	4B-y	pro-	2dd	sunt.
.	.	.	.	4B-y	-pter	.	.
=39	=39	=39	=39	=39	=39	=39	=39
2F	Qui	4c	Qui	4A	nos	1r	.
.	.	4A	.	2d	ho-	.	.
4G	pro-	4.B-y	pro-	.	.	.	.
4G	-pter	.	.	4e	-mi-	.	.
.	.	8A	.	.	.	.	.
=40	=40	=40	=40	=40	=40	=40	=40
4D	nos	2F	-pter	2.f	-nes,	1r	.
2F	ho-	.	.	.	.	.	.
.	.	2r	.	.	.	.	.
4G	-mi-	.	.	8eL	.	.	.
.	.	.	.	8dJ	.	.	.
!!LO:PB:g=original	*	*	*	*	*	*	*	*
=41	=41	=41	=41	=41	=41	=41	=41
2.A	-nes,	2r	.	4c	.	2r	.
.	.	.	.	2e	et	.	.
.	.	4r	.	.	.	2a	Et
8GL	.	4F	nos	[4d	pro-	.	.
8FJ	.	.	.	.	.	.	.
=42	=42	=42	=42	=42	=42	=42	=42
4E	.	4G	ho-	4d]	.	4g	pro-
4E	et	4G	-mi-	4c#i	-pter	4g	-pter
4D	pro-	4A	-nes,	2d	no-	2f	no-
4D	-pter	4A	et	.	.	.	.
=43	=43	=43	=43	=43	=43	=43	=43
2E	no-	4G	pro-	4c	-stram	4g	-stram
.	.	4G	-pter	4c	sa-	4g	sa-
4D	-stram	2A	no-	2d	-lu-	2f	-lu-
4D	sa-	.	.	.	.	.	.
=44	=44	=44	=44	=44	=44	=44	=44
2E	-lu-	4G	-stram	4c	-tem	4g	-tem
.	.	4G	sa-	4c	de-	4g	de-
4D	-tem	2A	-lu-	4.d	-scen-	2f	-scen-
4D	de-	.	.	.	.	.	.
.	.	.	.	8c	.	.	.
=45	=45	=45	=45	=45	=45	=45	=45
4E	-scen-	4G	-tem	8B-yL	.	4g	-dit
.	.	.	.	8AJ	.	.	.
4G	-dit	4G	de-	4G	.	4b-y	de
8FL	de	2c	-scen-	2A	-dit	8aL	.
8E	.	.	.	.	.	8g	.
8D	.	.	.	.	.	8f	.
8CJ	.	.	.	.	.	8eJ	.
!!LO:LB:g=original	*	*	*	*	*	*	*	*
=46	=46	=46	=46	=46	=46	=46	=46
4.BB-y	ce-	4d	-dit	4B-y	de	4d	.
.	.	4B-y	de	4.d	ce-	2g	ce-
8C	.	.	.	.	.	.	.
2D	-lis.	2A	ce-	.	.	.	.
.	.	.	.	8c	.	.	.
.	.	.	.	4A	.	4f#i	.
=47	=47	=47	=47	=47	=47	=47	=47
1r	.	2G	-lis.	2B-y	-lis.	2g	-lis.
.	.	2r	.	4r	.	2b-y	Et
.	.	.	.	4g	Et	.	.
=48	=48	=48	=48	=48	=48	=48	=48
1r	.	1r	.	4g	in-	4b-y	in-
.	.	.	.	4f	-car-	4a	-car-
.	.	.	.	4g	-na-	4b-y	-na-
.	.	.	.	4e	-tus	4g	-tus
=49	=49	=49	=49	=49	=49	=49	=49
1r	.	1r	.	2f	est	2a	est
.	.	.	.	4f	de	4a	de
*	*	*	*	*	*	*col	*
.	.	.	.	[4g	Spi-	[4b-y	Spi-
=50	=50	=50	=50	=50	=50	=50	=50
1r	.	1r	.	8gL]	.	8b-L]	.
.	.	.	.	8gJ	-ri-	8b-yJ	-ri-
*	*	*	*	*	*	*Xcol	*
.	.	.	.	4a	-tu	4cc	-tu
.	.	.	.	2f#i	San-	2a	San-
!!LO:LB:g=original	*	*	*	*	*	*	*	*
=51	=51	=51	=51	=51	=51	=51	=51
4r	.	4r	.	4g	-cto:	4g	-cto:
2G	Ex	2B-y	Ex	4r	.	4r	.
.	.	.	.	2r	.	2r	.
4F	Ma-	4A	Ma-	.	.	.	.
=52	=52	=52	=52	=52	=52	=52	=52
4G	-ri-	4B-y	-ri-	1r	.	1r	.
4F	-a	4A	-a	.	.	.	.
4G	Vir-	4B-y	Vir-	.	.	.	.
4E	-gi-	4G	-gi-	.	.	.	.
=53	=53	=53	=53	=53	=53	=53	=53
2D	-ne:	2A	-ne:	2r	.	2r	.
4.BB-y	et	[2d	et	[2f	et	[2b-y	et
8C	.	.	.	.	.	.	.
=54	=54	=54	=54	=54	=54	=54	=54
8DL	.	4d]	.	4f]	.	4b-]	.
8EJ	.	.	.	.	.	.	.
4F	.	4c	ho-	4f	ho-	4a	ho-
4G	ho-	4B-y	-mo	4e-i	-mo	4g	-mo
4F	-mo	[4c	fa-	4f	fa-	[4a	fa-
=55	=55	=55	=55	=55	=55	=55	=55
4C	fa-	8cL]	.	4e-i	.	4a]	.
.	.	8B-yJ	.	.	.	.	.
4E-i	.	4G	.	4c	.	2g	.
2D	-ctus	2A	-ctus	2d	-ctus	.	.
.	.	.	.	.	.	4f#i	-ctus
=56	=56	=56	=56	=56	=56	=56	=56
0G	est.	0G	est.	0d	est.	0g	est.
!!LO:LB:g=original	*	*	*	*	*	*	*	*
=57||	=57||	=57||	=57||	=57||	=57||	=57||	=57||
*M2/2	*	*M2/2	*	*M2/2	*	*M2/2	*
*met(C|)	*	*met(C|)	*	*met(C|)	*	*met(C|)	*
4G	Cru-	2r	.	4d	Cru-	4g	Cru-
4G	-ci-	.	.	4d	-ci-	4g	-ci-
4G	-fi-	4G	Cru-	4B-y	-fi-	4dd	-fi-
4G	-xus	4G	-ci-	4B-y	-xus	4dd	-xus
=58	=58	=58	=58	=58	=58	=58	=58
*	*	*	*	*	*	*col	*
4.D	e-	4d	-fi-	4.A	e-	4.ff	e-
.	.	4d	-xus	.	.	.	.
8D	-ti-	.	.	8A	-ti-	8ee	-ti-
*	*	*	*	*	*	*Xcol	*
2D	-am	4.f	e-	2A	-am	2dd	-am
.	.	8e	-ti-	.	.	.	.
=59	=59	=59	=59	=59	=59	=59	=59
4D	pro	4d	-am	4A	pro	4ff	pro
*	*	*	*	*	*	*lig	*
2C	.	2g	pro	2c	no-	2ee	no-
4D	.	4f	.	[4A	-bis:	[4dd	.
=60	=60	=60	=60	=60	=60	=60	=60
2A	no-	2e	no-	4A]	.	4dd]	.
*	*	*	*	*	*	*Xlig	*
.	.	.	.	4a	sub	4cc#i	.
4B-y	-bis:	4d	-bis:	4f	Pon-	4dd	-bis;
4G	sub	4d	sub	4g	-ti-	4b-y	sub
=61	=61	=61	=61	=61	=61	=61	=61
4.G	Pon-	4.d	Pon-	8dL	-o	4.b-y	Pon-
.	.	.	.	8e	.	.	.
.	.	.	.	8f	.	.	.
8G	-ti-	8d	-ti-	8gJ	.	8b-y	-ti-
4F	-o	4d	-o	4a	.	4a	-o
4G	Pi-	[4d	Pi-	4g	Pi-	[4b-y	Pi-
!!LO:PB:g=original	*	*	*	*	*	*	*	*
=62	=62	=62	=62	=62	=62	=62	=62
4D	-la-	4d]	.	4.f	-la-	4b-]	.
4F	.	4c	.	.	.	2a	-la-
.	.	.	.	8e	.	.	.
4G	.	2B-y	-la-	4d	.	.	.
4E	.	.	.	4e	.	4g	.
=63	=63	=63	=63	=63	=63	=63	=63
2F	-to	2A	-to	2c	-to	2a	-to
4F	pas-	4c	pas-	4A	pas-	4a	pas-
4D	-sus,	4d	-sus,	4F	-sus,	4b-y	-sus,
=64	=64	=64	=64	=64	=64	=64	=64
4C	et	8e-iL	et	4G	et	8ccL	et
.	.	8d	.	.	.	8b-y	.
4F	se-	8c	.	4A	.	8a	.
.	.	8B-yJ	.	.	.	8gJ	.
4BB-y	.	4d	.	4F	.	4b-y	.
[4F	-pul-	4c	se-	[4f	se-	[4a	se-
=65	=65	=65	=65	=65	=65	=65	=65
4F]	.	4d	-pul-	8fL]	.	4a]	.
.	.	.	.	8e-jJ	.	.	.
4G	-tus	4B-y	.	2d	-pul-	2g	-pul-
2D	est.	2A	-tus	.	.	.	.
.	.	.	.	4d	-tus	4f#i	-tus
=66	=66	=66	=66	=66	=66	=66	=66
1r	.	2G	est.	2d	est.	2g	est.
.	.	2r	.	4g	Et	4g	Et
.	.	.	.	[4g	re-	[4b-y	re-
!!LO:LB:g=original	*	*	*	*	*	*	*	*
=67	=67	=67	=67	=67	=67	=67	=67
1r	.	1r	.	4g]	.	4b-]	.
.	.	.	.	4a	-sur-	4cc	-sur-
.	.	.	.	2f#i	-re-	2a	-re-
=68	=68	=68	=68	=68	=68	=68	=68
4r	.	4r	.	2g	-xit,	2g	-xit,
4G	Ter-	4B-y	Ter-	.	.	.	.
4G	-ti-	4B-y	-ti-	2r	.	2r	.
4A	-a	4c	-a	.	.	.	.
=69	=69	=69	=69	=69	=69	=69	=69
2F#i	di-	2A	di-	2r	.	2r	.
4G	-e,	4G	-e,	4r	.	4r	.
4G	se-	4d	se-	4g	se-	4g	se-
=70	=70	=70	=70	=70	=70	=70	=70
2G	-cun-	2d	-cun-	2g	-cun-	2b-y	-cun-
4E-i	-dum	4e-i	-dum	4g	-dum	4cc	-dum
4D	Scri-	[4f	Scri-	4f	Scri-	[4dd	Scri-
=71	=71	=71	=71	=71	=71	=71	=71
*lig	*	*	*	*	*	*	*
2BB-y	-ptu-	4f]	.	4d	.	4dd]	.
.	.	4d	.	4.f	-ptu-	2b-y	-ptu-
2F	.	2c	.	.	.	.	.
.	.	.	.	8e-i	.	.	.
.	.	.	.	4c	.	4a	.
*Xlig	*	*	*	*	*	*	*
!!LO:LB:g=original	*	*	*	*	*	*	*	*
=72	=72	=72	=72	=72	=72	=72	=72
2BB-y	-ras.	4.B-y	-ptu-	2d	-ras.	1b-y	-ras.
.	.	8A	.	.	.	.	.
2r	.	2G	.	4B-y	Et	.	.
.	.	.	.	4B-y	a-	.	.
=73	=73	=73	=73	=73	=73	=73	=73
4BB-y	Et	2F	-ras.	4d	-scen-	1r	.
4BB-y	a-	.	.	4d	-dit	.	.
4D	-scen-	2r	.	4d	in	.	.
4D	-dit	.	.	[4f	ce-	.	.
=74	=74	=74	=74	=74	=74	=74	=74
4D	in	1r	.	4f]	.	1r	.
2F	ce-	.	.	8eL	.	.	.
.	.	.	.	8dJ	.	.	.
.	.	.	.	4.c	-lum:	.	.
8EL	.	.	.	.	.	.	.
8DJ	.	.	.	8d	.	.	.
=75	=75	=75	=75	=75	=75	=75	=75
4.C	-lum:	1r	.	8eL	.	1r	.
.	.	.	.	8fJ	.	.	.
.	.	.	.	2g	.	.	.
8D	.	.	.	.	.	.	.
8EL	.	.	.	.	.	.	.
8FJ	.	.	.	.	.	.	.
[4G	se-	.	.	4e	se-	.	.
=76	=76	=76	=76	=76	=76	=76	=76
4G]	.	1r	.	4d	-det	1r	.
8FL	.	.	.	4g	ad	.	.
8EJ	.	.	.	.	.	.	.
4D	-det	.	.	4f	dex-	.	.
4G	ad	.	.	4e	-te-	.	.
=77	=77	=77	=77	=77	=77	=77	=77
4.F	dex-	1r	.	4d	-ram	1r	.
.	.	.	.	2f	Pa-	.	.
8E	-te-	.	.	.	.	.	.
4D	-ram	.	.	.	.	.	.
[4A	Pa-	.	.	8eL	.	.	.
.	.	.	.	8dJ	.	.	.
!!LO:LB:g=original	*	*	*	*	*	*	*	*
=78	=78	=78	=78	=78	=78	=78	=78
4A]	.	1r	.	4c	.	1r	.
8GL	.	.	.	2d	.	.	.
8FJ	.	.	.	.	.	.	.
2E	.	.	.	.	.	.	.
.	.	.	.	4c#i	.	.	.
=79	=79	=79	=79	=79	=79	=79	=79
2D	-tris.	4r	.	2d	-tris.	4r	.
.	.	4d	Et	.	.	4dd	Et
2r	.	4f	i-	2r	.	4dd	i-
.	.	4e	-te-	.	.	4cc	-te-
=80	=80	=80	=80	=80	=80	=80	=80
1r	.	4d	-rum	1r	.	4dd	-rum
.	.	4d	ven-	.	.	4b-y	ven-
.	.	4c	-tu-	.	.	4a	-tu-
.	.	4B-y	-rus	.	.	4g	-rus
=81	=81	=81	=81	=81	=81	=81	=81
1r	.	4A	est	1r	.	4a	est
.	.	4c	cum	.	.	4a	cum
.	.	4B-y	glo-	.	.	4g	glo-
.	.	4A	-ri-	.	.	4f#j	-ri-
=82	=82	=82	=82	=82	=82	=82	=82
1r	.	4G	-a	1r	.	4g	-a
.	.	4G	ju-	.	.	4g	ju-
.	.	4B-y	-di-	.	.	4f	-di-
.	.	4c	-ca-	.	.	4e-j	-ca-
=83	=83	=83	=83	=83	=83	=83	=83
4BB-y	Ju-	2d	-re	1r	.	4d	-re
4BB-y	-di-	.	.	.	.	2f	vi-
4D	-ca-	2B-y	vi-	.	.	.	.
4E-i	-re	.	.	.	.	4g	-vos
!!LO:PB:g=original	*	*	*	*	*	*	*	*
=84	=84	=84	=84	=84	=84	=84	=84
4F	vi-	4A	-vos	4f	Vi-	4a	et
4.G	-vos	2d	et	4d	-vos	2b-y	mor-
.	.	.	.	4g	et	.	.
8D	.	.	.	.	.	.	.
4F	et	4c	mor-	4f	mor-	[4a	-tu-
=85	=85	=85	=85	=85	=85	=85	=85
4G	mor-	2B-y	-tu-	4.d	-tu-	4a]	.
4G	-tu-	.	.	.	.	4g	.
.	.	.	.	8e	.	.	.
2F	-os:	2A	-os:	4f	.	2a	-os:
.	.	.	.	4a	-os:	.	.
=86	=86	=86	=86	=86	=86	=86	=86
4G	cu-	4d	cu-	4g	cu-	4b-y	cu-
4A	-jus	4c	-jus	4f	-jus	4a	-jus
4G	re-	4d	re-	4g	re-	4b-y	re-
4A	-gni	4c	-gni	4f	-gni	4a	-gni
=87	=87	=87	=87	=87	=87	=87	=87
4G	non	4d	non	4g	non	4b-y	non
4A	e-	4c	e-	4f	e-	4a	e-
4G	-rit	4d	-rit	4g	-rit	4b-y	-rit
*	*	*	*	*	*	*lig	*
4A	fi-	[4c	fi-	4e	fi-	[4a	fi-
=88	=88	=88	=88	=88	=88	=88	=88
4F	.	4c]	.	4f	.	4a]	.
4G	.	4G	.	2.d	.	2g	.
*	*	*	*	*	*	*Xlig	*
2D	-nis.	2A	.	.	.	.	.
.	.	.	.	.	.	4f#i	.
=89	=89	=89	=89	=89	=89	=89	=89
2r	.	2G	-nis.	2d	-nis.	2g	-nis.
4G	Et	4B-y	Et	4g	Et	2r	.
4G	in	4B-y	in	4g	in	.	.
!!LO:LB:g=original	*	*	*	*	*	*	*	*
=90	=90	=90	=90	=90	=90	=90	=90
4.G	Spi-	4.d	Spi-	4.b-y	Spi-	4g	Et
.	.	.	.	.	.	4g	in
8G	-ri-	8d	-ri-	8a	.	.	.
[2G	-tum	2d	-tum	4g	-ri-	4.b-y	Spi-
.	.	.	.	8fL	.	.	.
.	.	.	.	8eJ	.	8a	.
=91	=91	=91	=91	=91	=91	=91	=91
2G]	.	2r	.	2d	-tum	4g	-ri-
.	.	.	.	.	.	8fL	.
.	.	.	.	.	.	8eJ	.
4G	San-	4B-y	San-	4g	San-	2d	-tum
4G	-ctum,	4B-y	-ctum,	4g	-ctum,	.	.
=92	=92	=92	=92	=92	=92	=92	=92
4.G	Do-	4.d	Do-	4.b-y	Do-	4g	San-
.	.	.	.	.	.	4g	-ctum,
8G	-mi-	8d	-mi-	8a	.	.	.
2G	-num,	2d	-num,	4g	-mi-	4.b-y	Do-
.	.	.	.	8fL	.	.	.
.	.	.	.	8eJ	.	8a	.
=93	=93	=93	=93	=93	=93	=93	=93
4G	et	2r	.	2d	-num:	4g	-mi-
4B-y	vi-	.	.	.	.	8fL	.
.	.	.	.	.	.	8eJ	.
4B-y	-vi-	4B-y	et	2r	.	2d	-num,
4BB-y	-fi-	4B-y	vi-	.	.	.	.
=94	=94	=94	=94	=94	=94	=94	=94
!!LO:S:dash
(1BB-y	-can-	4d	-vi-	1r	.	4b-y	et
.	.	4d	-fi-	.	.	4b-y	vi-
.	.	4B-y	-can-	.	.	4.dd	-vi-
.	.	8AL	.	.	.	.	.
.	.	8GJ	.	.	.	8cc	.
!!LO:LB:g=original	*	*	*	*	*	*	*	*
=95	=95	=95	=95	=95	=95	=95	=95
!!LO:S:dash
(2BB-y)	.	4F	.	1r	.	4b-y	-fi-
.	.	2f	.	.	.	8aL	.
.	.	.	.	.	.	8gJ	.
8BB-yL)	.	.	.	.	.	4f	-can-
8C	.	.	.	.	.	.	.
8D	.	4d	.	.	.	[4b-y	.
8E-iJ	.	.	.	.	.	.	.
=96	=96	=96	=96	=96	=96	=96	=96
2F	.	2c	.	2r	.	4b-]	.
.	.	.	.	.	.	4a	.
2BB-y	-tem:	2B-y	-tem.	4d	qui	2b-y	-tem.
.	.	.	.	4d	ex	.	.
=97	=97	=97	=97	=97	=97	=97	=97
4D	qui	1r	.	4.f	Pa-	1r	.
4D	ex	.	.	.	.	.	.
.	.	.	.	8e	.	.	.
4F	Pa-	.	.	4d	-tre	.	.
4F	-tre	.	.	8cL	.	.	.
.	.	.	.	8B-yJ	.	.	.
=98	=98	=98	=98	=98	=98	=98	=98
4.F	Fi-	1r	.	4A	Fi-	1r	.
.	.	.	.	2f	-li-	.	.
8G	.	.	.	.	.	.	.
4A	-li-	.	.	.	.	.	.
*	*	*	*	*col	*	*	*
[4B-y	-o-	.	.	[4g	-o-	.	.
=99	=99	=99	=99	=99	=99	=99	=99
8B-L]	.	1r	.	8gL]	.	1r	.
8AJ	.	.	.	8f	.	.	.
*	*	*	*	*Xcol	*	*	*
2G	-que	.	.	8e	-que	.	.
.	.	.	.	8dJ	.	.	.
.	.	.	.	4e	pro-	.	.
4F	pro-	.	.	[4d	-ce-	.	.
=100	=100	=100	=100	=100	=100	=100	=100
2E	-ce-	1r	.	4d]	.	1r	.
.	.	.	.	4c#i	.	.	.
4D	-dit.	.	.	[2d	-dit.	.	.
4G	Qui	.	.	.	.	.	.
!!LO:LB:g=original	*	*	*	*	*	*	*	*
=101	=101	=101	=101	=101	=101	=101	=101
4G	cum	2r	.	2d]	.	4r	.
4G	Pa-	.	.	.	.	4dd	Qui
4D	-tre	4r	.	2r	.	4dd	cum
4D	et	4f	Qui	.	.	4dd	Pa-
=102	=102	=102	=102	=102	=102	=102	=102
4G	Fi-	4g	cum	4r	.	4b-y	-tre
4G	-li-	4g	Pa-	4d	Et	4b-y	et
2C	-o	4e	-tre	4g	Fi-	4.cc	Fi-
.	.	4e	et	4g	-li-	.	.
.	.	.	.	.	.	8b-y	-li-
=103	=103	=103	=103	=103	=103	=103	=103
4F	si-	4f	Fi-	2c	-o	2a	-o
4F	-mul	4f	-li-	.	.	.	.
4G	ad-	2d	-o	4B-y	si-	4b-y	si-
4G	-o-	.	.	4B-y	-mul	4b-y	-mul
=104	=104	=104	=104	=104	=104	=104	=104
2C	-ra-	4e-j	si-	4c	ad-	4g	ad-
.	.	4e-j	-mul	4c	-o-	4g	-o-
2F	-tur,	4c	ad-	2A	-ra-	2a	-ra-
.	.	4c	-o-	.	.	.	.
=105	=105	=105	=105	=105	=105	=105	=105
4D	et	2d	-ra-	4A	-tur,	4f	-tur,
4D	con-	.	.	2d	et	4f	et
2G	-glo-	4B-y	-tur,	.	.	4g	con-
.	.	4B-y	et	4d	con-	4g	-glo-
=106	=106	=106	=106	=106	=106	=106	=106
4C	-ri-	4c	con-	4g	-glo-	4e	-ri-
2F	-fi-	4c	-glo-	4.f	-ri-	2a	-fi-
.	.	4c	-ri-	.	.	.	.
.	.	.	.	8e-j	.	.	.
4G	-ca-	4B-y	-fi-	[4d	-fi-	[4g	-ca-
!!LO:PB:g=original	*	*	*	*	*	*	*	*
=107	=107	=107	=107	=107	=107	=107	=107
2D	-tur:	2A	-ca-	4d]	.	4g]	.
.	.	.	.	4d	-ca-	4f#i	.
2r	.	2G	-tur:	2B-y	-tur:	2g	-tur:
=108	=108	=108	=108	=108	=108	=108	=108
4D	qui	1r	.	4F	qui	1r	.
4D	lo-	.	.	4F	lo-	.	.
8E-XL	-cu-	.	.	8GL	-cu-	.	.
8D	.	.	.	8FJ	.	.	.
8C	.	.	.	[4B-y	.	.	.
8BB-yJ	.	.	.	.	.	.	.
=109	=109	=109	=109	=109	=109	=109	=109
4C	.	2r	.	4B-]	.	2r	.
4C	-tus	.	.	4A	-tus	.	.
2BB-y	est.	4d	per	2B-y	est.	4f	per
.	.	4d	Pro-	.	.	4f	Pro-
=110	=110	=110	=110	=110	=110	=110	=110
1r	.	8e-iL	-phe-	1r	.	8gL	-phe-
.	.	8d	.	.	.	8fJ	.
.	.	8c	.	.	.	2b-y	.
.	.	8B-yJ	.	.	.	.	.
.	.	2c	.	.	.	.	.
.	.	.	.	.	.	4a	.
=111	=111	=111	=111	=111	=111	=111	=111
1r	.	4B-y	-tas.	1r	.	4b-y	-tas.
.	.	4B-y	Et	.	.	4b-y	Et
.	.	4d	u-	.	.	4b-y	u-
.	.	4e	-nam	.	.	4b-y	-nam
=112	=112	=112	=112	=112	=112	=112	=112
1r	.	2f	san-	1r	.	8aL	san-
.	.	.	.	.	.	8b-y	.
.	.	.	.	.	.	8cc	.
.	.	.	.	.	.	8ddJ	.
.	.	4e	-ctam	.	.	4ee	.
.	.	4d	ca-	.	.	4ff	-ctam
!!LO:LB:g=original	*	*	*	*	*	*	*	*
=113	=113	=113	=113	=113	=113	=113	=113
1r	.	4.g	-tho-	1r	.	4ee	ca-
.	.	.	.	.	.	2dd	-tho-
.	.	8f	.	.	.	.	.
.	.	2e	-li-	.	.	.	.
.	.	.	.	.	.	4cc#i	-li-
=114	=114	=114	=114	=114	=114	=114	=114
4r	.	2d	-cam.	4r	.	2dd	-cam.
4D	Et	.	.	4d	Et	.	.
4F	a-	2r	.	4d	a-	2r	.
4F	-po-	.	.	4c	-po-	.	.
=115	=115	=115	=115	=115	=115	=115	=115
4G	-sto-	1r	.	4B-y	-sto-	1r	.
4G	-li-	.	.	4B-y	-li-	.	.
4F	-cam	.	.	4A	-cam	.	.
[4B-y	Ec-	.	.	[4d	Ec-	.	.
=116	=116	=116	=116	=116	=116	=116	=116
4B-]	.	1r	.	4d]	.	1r	.
8AL	.	.	.	4.f	-cle-	.	.
8GJ	.	.	.	.	.	.	.
4F	.	.	.	.	.	.	.
.	.	.	.	8eL	.	.	.
8B-yL	-cle-	.	.	8d	.	.	.
8AJ	.	.	.	8cJ	.	.	.
=117	=117	=117	=117	=117	=117	=117	=117
8GL	.	1r	.	8B-yL	.	1r	.
8FJ	.	.	.	8AJ	.	.	.
4G	.	.	.	2d	.	.	.
2E	-si-	.	.	.	.	.	.
.	.	.	.	4c#i	-si-	.	.
=118	=118	=118	=118	=118	=118	=118	=118
*M3/2	*	*M3/2	*	*M3/2	*	*M3/2	*
*met(O)	*	*met(O)	*	*met(O)	*	*met(O)	*
!!LO:TX:t=[whole]=[whole-dot]
!!LO:TX:a:t=[C |3]
1D	-am.	2r	.	1d	-am.	2r	.
.	.	2r	.	.	.	2r	.
2G	Con-	2B-y	Con-	2d	Con-	2dd	Con-
!!LO:LB:g=original	*	*	*	*	*	*	*	*
=119	=119	=119	=119	=119	=119	=119	=119
*lig	*	*	*	*	*	*	*
2G	-fi-	1B-y	-fi-	2.d	-fi-	1dd	-fi-
2B-y	.	.	.	.	.	.	.
.	.	.	.	4e	.	.	.
*Xlig	*	*	*	*	*	*	*
2A	-te-	2c	-te-	2f	-te-	2cc	-te-
=120	=120	=120	=120	=120	=120	=120	=120
*	*	*lig	*	*	*	*	*
1G	-or	2d	-or	1g	-or	1b-y	-or
.	.	2B-y	.	.	.	.	.
*	*	*Xlig	*	*	*	*	*
2E-j	u-	2c	u-	2G	u-	2g	u-
=121	=121	=121	=121	=121	=121	=121	=121
*	*	*col	*	*	*	*	*
1D	-num	1d	-num	2.A	-num	1f	-num
.	.	.	.	4B-y	.	.	.
*	*	*lig	*	*	*	*	*
2C	ba-	2e-X	ba-	2c	.	2g	ba-
=122	=122	=122	=122	=122	=122	=122	=122
*lig	*	*	*	*	*	*	*
2BB-y	-pti-	2d	.	2f	ba-	1b-y	-pti-
*	*	*Xlig	*	*	*	*	*
1F	.	1c	-pti-	1f	-pti-	.	.
*	*	*Xcol	*	*	*	*	*
.	.	.	.	.	.	2a	.
*Xlig	*	*	*	*	*	*	*
=123	=123	=123	=123	=123	=123	=123	=123
1.BB-y	-sma	1.B-y	-sma	1d	-sma	1b-y	-sma
.	.	.	.	2r	.	2r	.
=124	=124	=124	=124	=124	=124	=124	=124
1.r	.	1.r	.	2.g	in	2.b-y	in
.	.	.	.	4f	re-	4a	re-
.	.	.	.	4g	-mis-	4b-y	-mis-
.	.	.	.	4f	-si-	4a	-si-
!!LO:LB:g=original	*	*	*	*	*	*	*	*
=125	=125	=125	=125	=125	=125	=125	=125
1.r	.	1.r	.	1g	-o-	1b-y	-o-
.	.	.	.	2f	-nem	2a	-nem
=126	=126	=126	=126	=126	=126	=126	=126
*col	*	*	*	*	*	*	*
1BB-y	pec-	1d	pec-	1f	pec-	1b-y	pec-
2F	-ca-	2c	-ca-	2f	-ca-	2a	-ca-
=127	=127	=127	=127	=127	=127	=127	=127
2G	-to-	2B-y	.	1d	-to-	1g	-to-
1D	-rum.	1A	-to-	.	.	.	.
*Xcol	*	*	*	*	*	*	*
.	.	.	.	2d	-rum.	2f#i	.
=128	=128	=128	=128	=128	=128	=128	=128
2r	.	1G	-rum.	2r	.	1g	-rum.
2r	.	.	.	2r	.	.	.
2B-y	Et	2r	.	2d	Et	2r	.
=129	=129	=129	=129	=129	=129	=129	=129
2c	ex-	1.r	.	2e	ex-	1.r	.
2A	-spe-	.	.	2f	-spe-	.	.
2G	-cto	.	.	2g	-cto	.	.
=130	=130	=130	=130	=130	=130	=130	=130
1.r	.	4B-y	Re-	1.r	.	4d	Re-
.	.	4B-y	-sur-	.	.	4d	-sur-
.	.	4c	-re-	.	.	4e	-re-
.	.	4c	-cti-	.	.	4e	-cti-
.	.	2A	-o-	.	.	2f	-o-
!!LO:PB:g=original	*	*	*	*	*	*	*	*
=131	=131	=131	=131	=131	=131	=131	=131
*	*	*	*	*	*	*col	*
2r	.	1G	-nem	2r	.	1g	-nem
2r	.	.	.	2r	.	.	.
*	*	*	*	*col	*	*	*
2G	mor-	2G	mor-	4.d	mor-	2b-y	mor-
.	.	.	.	8e	.	.	.
*	*	*	*	*Xcol	*	*	*
=132	=132	=132	=132	=132	=132	=132	=132
2F	-tu-	2A	-tu-	2f	-tu-	2a	-tu-
*	*	*lig	*	*	*	*	*
1E-i	-o-	2B-y	-o-	2g	-o-	1g	-o-
*	*	*	*	*	*	*Xcol	*
.	.	2c	.	2G	.	.	.
*	*	*Xlig	*	*	*	*	*
=133	=133	=133	=133	=133	=133	=133	=133
*M2/2	*	*M2/2	*	*M2/2	*	*M2/2	*
*met(C|)	*	*met(C|)	*	*met(C|)	*	*met(C|)	*
!!LO:TX:t=[whole-dot]=[whole]
1D	-rum.	1d	-rum.	1A	-rum.	1f	-rum.
=134	=134	=134	=134	=134	=134	=134	=134
!	!	!	!	!	!	!LO:TX:a:t=.	!
2r	.	1r	.	4r	.	1r	.
.	.	.	.	4G	Et	.	.
4r	.	.	.	2B-y	vi-	.	.
4G	Et	.	.	.	.	.	.
=135	=135	=135	=135	=135	=135	=135	=135
2B-y	vi-	2r	.	4G	-tam	1r	.
.	.	.	.	4G	ven-	.	.
4G	-tam	4r	.	4d	-tu-	.	.
4G	ven-	4G	Et	4d	-ri	.	.
=136	=136	=136	=136	=136	=136	=136	=136
4G	-tu-	2B-y	vi-	2d	se-	2r	.
4G	-ri	.	.	.	.	.	.
4.E-X	se-	4G	-tam	2e-X	-cu-	4r	.
.	.	4G	ven-	.	.	4g	Et
8D	.	.	.	.	.	.	.
!!LO:LB:g=original	*	*	*	*	*	*	*	*
=137	=137	=137	=137	=137	=137	=137	=137
*lig	*	*	*	*	*	*	*
2BB-y	-cu-	4d	-tu-	2d	-li,	2b-y	vi-
.	.	4d	-ri	.	.	.	.
*	*	*	*	*	*edit	*	*
2C	.	2e-X	se-	2c	se-	4g	-tam
.	.	.	.	.	.	4g	ven-
*Xlig	*	*	*	*	*	*	*
=138	=138	=138	=138	=138	=138	=138	=138
2BB-y	-li.	4d	-cu-	2F	-cu-	4dd	-tu-
.	.	4d	-li,	.	.	4dd	-ri
*	*	*	*edit	*	*	*	*
2r	.	8B-yL	se-	4G	-li.	4.dd	se-
.	.	8c	.	.	.	.	.
.	.	8d	.	4B-y	.	.	.
.	.	8e-iJ	.	.	.	8cc	.
=139	=139	=139	=139	=139	=139	=139	=139
4r	.	4f	.	4F	.	8aL	.
.	.	.	.	.	.	8gJ	.
*	*	*	*	*	*Xedit	*	*
4BB-y	A-	8e-iL	-cu-	2.f	A-	2b-y	-cu-
.	.	8dJ	.	.	.	.	.
2F	.	2c	-li.	.	.	.	.
.	.	.	.	.	.	4a	.
=140	=140	=140	=140	=140	=140	=140	=140
4.G	.	4r	.	4d	.	4.b-y	-li.
*	*	*	*Xedit	*	*	*	*
.	.	4g	A-	4B-y	.	.	.
8F	.	.	.	.	.	8cc	.
4D	.	4f	.	8AL	.	4dd	.
.	.	.	.	8B-yJ	.	.	.
*	*	*	*	*lig	*	*	*
[4C	.	[4g	.	[4c	.	[4ee	A-
=141	=141	=141	=141	=141	=141	=141	=141
4C]	.	8gL]	.	4c]	.	4ee]	.
.	.	8f	.	.	.	.	.
4D	.	4d	.	2A	.	2dd	.
*	*	*	*	*Xlig	*	*	*
*	*edit	*	*	*	*	*	*
2A	-men,	2e	.	.	.	.	.
.	.	.	.	4c	.	4cc#i	.
!!LO:LB:g=original	*	*	*	*	*	*	*	*
=142	=142	=142	=142	=142	=142	=142	=142
*	*	*	*edit	*	*	*	*edit
4B-y	a-	4d	-men,	4B-y	.	4dd	-men,
4G	.	4g	a-	4d	.	4b-y	a-
*	*	*	*	*	*edit	*	*Xedit
4A	.	4e	.	2c	-men,	4cc	.
*	*	*	*	*	*Xedit	*	*
4F	.	4f	.	.	.	4a	.
=143	=143	=143	=143	=143	=143	=143	=143
4G	.	4d	.	4r	.	4b-y	.
4E	.	4e	.	4B-y	a-	4g	.
4F	.	4c	.	4A	.	8aL	.
.	.	.	.	.	.	8g	.
4D	.	4d	.	[4d	.	8f	.
.	.	.	.	.	.	8eJ	.
=144	=144	=144	=144	=144	=144	=144	=144
4G	.	4B-y	.	4d]	.	4d	.
4C	.	4c	.	4e-X	.	2g	.
2D	-men,	2A	-men,	2d	.	.	.
.	.	.	.	.	.	4f#i	.
=145	=145	=145	=145	=145	=145	=145	=145
4r	.	[1G	a-	2.B-y	.	[1g	.
*lig	*	*	*Xedit	*	*	*	*
2E-X	a-	.	.	.	.	.	.
*	*Xedit	*	*	*	*	*	*
[4C	.	.	.	[4c	.	.	.
=146	=146	=146	=146	=146	=146	=146	=146
4C]	.	1G]	.	4c]	.	1g]	.
*Xlig	*	*	*	*	*	*	*
4BB-y	.	.	.	4d	.	.	.
2C	.	.	.	2e-i	.	.	.
=147	=147	=147	=147	=147	=147	=147	=147
0Gl	-men.	0Gl	-men.	0dl	-men.	0gl	-men.
==	==	==	==	==	==	==	==
*-	*-	*-	*-	*-	*-	*-	*-
!!!system-decoration: [*]
!!!RDF**kern: j = editorial accidental, optional, paren up
!!!RDF**kern: i = editorial accidental
!!!RDF**kern: l = terminal long
!!!PTL: Gaspar van Weerbeke: Collected Works. V. Masses, Part 2
!!!PPR: American Institute of Musicology
!!!PC#: Corpus Mensurabilis Musicae 106/II.2
!!!PDT: 2018
!!!PED: Kolb, Paul
!!!YEC: Copyright 2016, Kolb, Paul
!!!YEM: CC-BY-NC 4.0 (https://creativecommons.org/licenses/by-nc/4.0/legalcode)
!!!EED: Zybina, Karina
!!!EEV: 2021/09/11
!!!title: @{OPR} &mdash; @{OTL}
